weblate/static/icons/pencil.svg

<svg xmlns="http://www.w3.org/2000/svg" xmlns:xlink="http://www.w3.org/1999/xlink" width="18" height="18" version="1.1" viewBox="0 0 18 18"><title>B05113D6-F83E-47E4-ADFE-466439191270</title><desc>Created with sketchtool.</desc><g id="App-UI" fill="none" fill-rule="evenodd" stroke="none" stroke-width="1"><g id="Translation" fill="#2A3744" fill-rule="nonzero" transform="translate(-1297.000000, -607.000000)"><path id="Pencil" d="M1297,621.2525 L1297,625.0025 L1300.75,625.0025 L1311.81,613.9425 L1308.06,610.1925 L1297,621.2525 Z M1314.71,611.0425 C1315.1,610.6525 1315.1,610.0225 1314.71,609.6325 L1312.37,607.2925 C1311.98,606.9025 1311.35,606.9025 1310.96,607.2925 L1309.13,609.1225 L1312.88,612.8725 L1314.71,611.0425 Z"/></g></g></svg>

<svg width="18" height="18" version="1.1" viewBox="0 0 18 18" xmlns="http://www.w3.org/2000/svg"><g fill="none" fill-rule="evenodd"><g transform="translate(-1297 -607)" fill="#2A3744" fill-rule="nonzero"><path d="m1297 621.25v3.75h3.75l11.06-11.06-3.75-3.75-11.06 11.06zm17.71-10.21c0.39-0.39 0.39-1.02 0-1.41l-2.34-2.34c-0.39-0.39-1.02-0.39-1.41 0l-1.83 1.83 3.75 3.75 1.83-1.83z"/></g></g></svg>
